!!!!SEGMENT: Ser1004b-Requiem-Kyrie
!!!id: Ser1004b
!!!AGN: Mass; Kyrie
!!!voices: 4
!!!OPR: Requiem
!!!COM: Claudin de Sermisy
!!!OTL: Kyrie
**kern	**kern	**kern	**kern
*part4	*part3	*part2	*part1
*staff4	*staff3	*staff2	*staff1
*I"Bassus	*I"Tenor	*I"Altus	*I"Superius
*I'B	*I'T	*I'A	*I'S
*clefF4	*clefGv2	*clefGv2	*clefGv2
*k[b-]	*k[b-]	*k[b-]	*k[b-]
*F:	*F:	*F:	*F:
*M2/1	*M2/1	*M2/1	*M2/1
*met(C|)	*met(C|)	*met(C|)	*met(C|)
=1	=1	=1	=1
!!section: Kyrie I
!!!OMD: Kyrie I
!	!	!	!LO:TX:a:t=Cantus firmus&colon; Missa pro defunctis \n
1.F	0F	1.A	0c
4E	.	4G	.
4D	.	4F	.
=2	=2	=2	=2
2C	1G	2E	1c
4BB-y	.	4D	.
4AA	.	4C	.
1GG	1G	2D	2.B-y
.	.	2E	.
.	.	.	4c
=3	=3	=3	=3
1FF	1A	1.F	2d
.	.	.	2c
[1BB-y	[1B-y	.	[1d
.	.	2D	.
=4	=4	=4	=4
1BB-]	2B-]	0d	2d]
.	2A	.	2c
1BB-y	2G	.	2B-y
.	2F	.	2A
=5	=5	=5	=5
[0C	2.E	1c	1G
.	4F	.	.
.	2G	2r	1c
.	2A	2C	.
=6	=6	=6	=6
0C]	2G	2E	0c
.	1F	2F	.
.	.	1G	.
.	2E	.	.
=7	=7	=7	=7
0FF	0F	0A	2r
.	.	.	2.c
.	.	.	4B-y
.	.	.	4A
.	.	.	4G
=8	=8	=8	=8
1r	0F	1r	1A
[1BB-y	.	[1D	[1B-y
=9	=9	=9	=9
1BB-]	1G	1D]	1B-]
1C	1G	1E	1r
=10	=10	=10	=10
1C	1A	1E	0r
1D	[1B-y	1F	.
=11	=11	=11	=11
1.E-i	2B-]	1G	1r
.	2A	.	.
.	2G	1r	1B-y
2D	2F	.	.
=12	=12	=12	=12
2C	2E	0r	2c
2BB-y	1F	.	1d
1C	.	.	.
.	2E	.	2c
=13	=13	=13	=13
0D	0F	1r	2B-y
.	.	.	4A
.	.	.	4G
.	.	1F	1A
=14	=14	=14	=14
1.GG	0r	2.G	2.B-y
.	.	4A	4c
.	.	2.B-y	1d
2AA	.	.	.
.	.	4A	.
=15	=15	=15	=15
2BB-y	1r	2F	[0d
2GG	.	1B-y	.
1D	1F	.	.
.	.	2A	.
=16	=16	=16	=16
0GG	2.G	2.B-y	0d]
.	4A	4A	.
.	[1B-y	1G	.
=17	=17	=17	=17
0BB-y	2B-]	1F	0d
.	2A	.	.
.	2G	1B-y	.
.	2F	.	.
=18	=18	=18	=18
1C	1E	1G	1c
2BB-y	2F	1B-y	2r
2GG	[2G	.	[2d
=19	=19	=19	=19
1D	2G]	2A	4d]
.	.	.	4c
.	1F	2F	4A
.	.	.	4B-y
1C	.	1G	[1c
.	2E	.	.
=20	=20	=20	=20
0FF	0F	0A	0c]
=21||	=21||	=21||	=21||
0BB-y	0r	1.F	0d
.	.	2G	.
=22	=22	=22	=22
1AA	1r	1A	1c
1GG	[1B-y	2.D	[1d
.	.	4E	.
=23	=23	=23	=23
0D	1B-]	2F	1d]
.	.	1G	.
.	1A	.	1d
.	.	2F	.
=24	=24	=24	=24
1E	1G	4G	2.B-y
.	.	4A	.
.	.	4B-y	.
.	.	4c	8AL
.	.	.	8GJ
2.D	1A	2d	1F
.	.	[2D	.
4C	.	.	.
=25	=25	=25	=25
2BB-y	2G	2D]	2G
2AA	1F	1C	2A
1GG	.	.	1B-y
.	2E	2BB-y	.
=26	=26	=26	=26
1FF	0F	1C	2A
.	.	.	2.c
1F	.	1r	.
.	.	.	4B-y
.	.	.	4A
.	.	.	4G
=27	=27	=27	=27
2D	0r	0r	2F
2.E-i	.	.	2.G
4D	.	.	4F
2BB-y	.	.	[2B-y
=28	=28	=28	=28
1C	1r	1r	2B-]
.	.	.	2A
[1BB-y	[1B-y	[1F	[1d
=29	=29	=29	=29
2BB-]	1B-]	1F]	0d]
2C	.	.	.
1D	1A	1F	.
=30	=30	=30	=30
1GG	1G	1B-y	1d
1r	2A	2c	2c
.	2F	[2d	2A
=31	=31	=31	=31
0r	1G	4d]	1B-y
.	.	4c	.
.	.	1B-y	.
.	[1F	.	1c
.	.	2A	.
=32	=32	=32	=32
1.BB-y	1F]	2.B-y	[0d
.	.	4A	.
.	1r	2G	.
2AA	.	2F	.
=33	=33	=33	=33
2GG	1r	2G	0d]
2FF	.	1A	.
1GG	[1B-y	.	.
.	.	[2G	.
=34	=34	=34	=34
1.D	1B-]	2G]	1.d
.	.	4F	.
.	.	4E	.
.	1A	2F	.
2AA	.	[2E	2c
=35	=35	=35	=35
1BB-y	1G	2E]	2d
.	.	2D	2B-y
2AA	[1A	2E	1c
2FF	.	[2F	.
=36	=36	=36	=36
0C	2A]	2F]	0c
.	4G	4E	.
.	4F	4D	.
.	1G	1E	.
=37	=37	=37	=37
0FFl	0Fl	0Fl	0Al
=38||	=38||	=38||	=38||
*M2/1	*M2/1	*M2/1	*M2/1
*met(C|)	*met(C|)	*met(C|)	*met(C|)
!!section: Kyrie II
!!!OMD: Kyrie II
1.FF	0F	1.C	0A
2FF	.	2D	.
=39	=39	=39	=39
2C	1G	2E	1c
4BB-y	.	2C	.
4AA	.	.	.
1GG	1G	2D	2.B-y
.	.	2E	.
.	.	.	4c
=40	=40	=40	=40
1FF	1A	1.F	2d
.	.	.	2c
[1BB-y	[1B-y	.	[1d
.	.	2D	.
=41	=41	=41	=41
1BB-]	2B-]	0d	2d]
.	2A	.	2c
1BB-y	2G	.	2B-y
.	2F	.	2A
=42	=42	=42	=42
[0C	2.E	1c	1G
.	4F	.	.
.	2G	2r	1c
.	2A	2C	.
=43	=43	=43	=43
0C]	2G	2E	0c
.	1F	2F	.
.	.	1G	.
.	2E	.	.
=44	=44	=44	=44
2r	0F	2.A	2r
2.FF	.	.	2.A
.	.	4B-y	.
.	.	1c	.
4EE	.	.	4G
4FF	.	.	4A
4GG	.	.	4B-y
=45	=45	=45	=45
2AA	2r	1F	2c
1BB-y	2.F	.	1d
.	.	1r	.
.	4E	.	.
4AA	4F	.	4c
4GG	4G	.	4B-y
=46	=46	=46	=46
1FF	1A	2r	1c
.	.	2.F	.
1BB-y	2.B-y	.	1d
.	.	4E	.
.	.	4F	.
.	4A	4G	.
=47	=47	=47	=47
2AA	2F	2A	2r
2GG	1G	1B-y	1d
1D	.	.	.
.	2F	2A	2d
=48	=48	=48	=48
0GG	1.G	1.B-y	1d
.	.	.	1d
.	2F	2A	.
=49	=49	=49	=49
1C	1E	1G	1c
1D	[1F	1F	2A
.	.	.	2B-y
=50	=50	=50	=50
0C	2F]	1.G	0c
.	4E	.	.
.	4D	.	.
.	1E	.	.
.	.	2A	.
=51	=51	=51	=51
0BB-y	0F	0B-y	0d
=52||	=52||	=52||	=52||
0GG	0G	0B-y	0d
=53	=53	=53	=53
1D	1F	1A	1d
1AA	[1E	1A	1c
=54	=54	=54	=54
0C	2E]	2.G	0c
.	2F	.	.
.	.	4F	.
.	2G	2E	.
.	2A	2C	.
=55	=55	=55	=55
0GG	1.B-y	0G	0d
.	2A	.	.
=56	=56	=56	=56
1C	1G	1E	[0c
1FF	[1F	[1A	.
=57	=57	=57	=57
0C	2F]	2A]	0c]
.	4E	4G	.
.	4D	4F	.
.	1E	1G	.
=58	=58	=58	=58
0D	[0Fl	2.F	1A
.	.	4G	.
.	.	1A	[1d
=59	=59	=59	=59
0BB-y	0F_	0B-y	2d]
.	.	.	4c
.	.	.	4B-y
.	.	.	1d
=60	=60	=60	=60
0FFl	0F]	0Al	0cl
==	==	==	==
*-	*-	*-	*-
!!!system-decoration: s1,s2,s3,s4
!!!RDF**kern: i = editorial accidental
!!!RDF**kern: l = terminal long
!!!ENC: Max Blistain
!!!END: 2025/11/12
!!!EED: Benjamin Ory
!!!EEV: 2025/11/19
!!!YEC: Copyright 2025 Benjamin Ory, All Rights Reserved
!!!ONB: Translated from MusicXML on 2025/11/19